.local/share/icons/Gruvbox-Plus-Dark/actions/16/preferences-system-windows-effect-minimize.svg

<svg width="16" height="16" version="1.1" xmlns="http://www.w3.org/2000/svg">
  <defs>
    <style id="current-color-scheme" type="text/css">.ColorScheme-Text { color:#ebdbb2; } .ColorScheme-Highlight { color:#458588; }</style>
  </defs>
  <path class="ColorScheme-Text" d="m4 1c-0.554 0-1 0.446-1 1v4c0 0.554 0.446 1 1 1h8c0.554 0 1-0.446 1-1v-4c0-0.554-0.446-1-1-1h-8zm1 7 3 3 3-3h-6zm-4 4v3h14v-3h-14z" fill="currentColor"/>
</svg>

<svg xmlns="http://www.w3.org/2000/svg" width="16" height="16" version="1.1">
 <defs>
  <style id="current-color-scheme" type="text/css">
   .ColorScheme-Text { color:#555555; } .ColorScheme-Highlight { color:#4285f4; } .ColorScheme-NeutralText { color:#ff9800; } .ColorScheme-PositiveText { color:#4caf50; } .ColorScheme-NegativeText { color:#f44336; }
  </style>
 </defs>
 <path style="fill:currentColor" class="ColorScheme-Text" d="M 4 1 C 3.446 1 3 1.446 3 2 L 3 6 C 3 6.554 3.446 7 4 7 L 12 7 C 12.554 7 13 6.554 13 6 L 13 2 C 13 1.446 12.554 1 12 1 L 4 1 z M 5 8 L 6.5 9.5 L 8 11 L 9.5 9.5 L 11 8 L 8 8 L 5 8 z M 1 12 L 1 15 L 15 15 L 15 12 L 1 12 z"/>
</svg>
